RASD/Images/SequenceDiagrams/Access_Analyzed_Data.svg

<svg version="1.1" xmlns="http://www.w3.org/2000/svg" xmlns:xlink="http://www.w3.org/1999/xlink" width="396" height="285"><defs/><g><g/><g/><g><rect fill="white" stroke="none" x="0" y="0" width="396" height="285"/></g><g><text fill="black" stroke="none" font-family="sans-serif" font-size="16.5pt" font-style="normal" font-weight="normal" text-decoration="normal" x="91.25857215691667" y="24.50280495" text-anchor="start" dominant-baseline="alphabetic">Access analyzed data</text></g><g/><g><path fill="none" stroke="black" paint-order="fill stroke markers" d=" M 30.16760165 128.80307802049998 L 30.16760165 285.6210297005" stroke-miterlimit="10" stroke-width="1.3612669416666667" stroke-dasharray="12.565541,5.445067766666667"/><path fill="none" stroke="black" paint-order="fill stroke markers" d=" M 332.0633470833333 128.80307802049998 L 332.0633470833333 285.6210297005" stroke-miterlimit="10" stroke-width="1.3612669416666667" stroke-dasharray="12.565541,5.445067766666667"/></g><g><g><path fill="white" stroke="black" paint-order="fill stroke markers" d=" M 39.478667531 59.70516806150002 A 9.311065881 9.311065881 0 1 1 39.47866287546745 59.69585699717086 M 30.16760165 69.01623394250002 L 30.16760165 88.94518196850002 M 18.406255274000003 76.20372339450002 L 41.928948026 76.20372339450002 M 30.16760165 88.94518196850002 L 18.406255274000003 107.56731373050002 M 30.16760165 88.94518196850002 L 41.928948026 107.56731373050002" stroke-miterlimit="10" stroke-width="2.7769845610000004" stroke-dasharray=""/></g><g><g/><text fill="black" stroke="none" font-family="sans-serif" font-size="11pt" font-style="normal" font-weight="normal" text-decoration="normal" x="8.167601650000002" y="123.90251703050001" text-anchor="start" dominant-baseline="alphabetic">Officer</text></g><path fill="none" stroke="none"/><g><path fill="white" stroke="black" paint-order="fill stroke markers" d=" M 275.8396515028333 84.69802911050002 L 388.2870426638333 84.69802911050002 L 388.2870426638333 128.8030780205 L 275.8396515028333 128.8030780205 L 275.8396515028333 84.69802911050002 Z" stroke-miterlimit="10" stroke-width="2.613632528" stroke-dasharray=""/></g><g><g/><text fill="black" stroke="none" font-family="sans-serif" font-size="11pt" font-style="normal" font-weight="normal" text-decoration="normal" x="293.5633470833333" y="112.46787472049999" text-anchor="start" dominant-baseline="alphabetic">SafeStreets</text></g></g><g><path fill="white" stroke="black" paint-order="fill stroke markers" d=" M 22 136.97067967049998 L 38.3352033 136.97067967049998 L 38.3352033 269.2858264005 L 22 269.2858264005 L 22 136.97067967049998" stroke-miterlimit="10" stroke-width="1.3612669416666667" stroke-dasharray=""/><path fill="white" stroke="black" paint-order="fill stroke markers" d=" M 323.89574543333333 182.70924891049998 L 340.2309487333333 182.70924891049998 L 340.2309487333333 228.44781815049998 L 323.89574543333333 228.44781815049998 L 323.89574543333333 182.70924891049998" stroke-miterlimit="10" stroke-width="1.3612669416666667" stroke-dasharray=""/><g><g><rect fill="white" stroke="none" x="57.66519387166666" y="161.4734846205" width="246.90056099" height="21.23576429"/></g><text fill="black" stroke="none" font-family="sans-serif" font-size="11pt" font-style="normal" font-weight="normal" text-decoration="normal" x="60.11547436666666" y="176.17516759049997" text-anchor="start" dominant-baseline="alphabetic">Clicks "Consult analyzed data" button</text></g><g><path fill="none" stroke="black" paint-order="fill stroke markers" d=" M 38.3352033 182.70924891049998 L 321.17321155 182.70924891049998" stroke-miterlimit="10" stroke-width="1.3612669416666667" stroke-dasharray=""/><g transform="translate(323.89574543333333,182.70924891049998) translate(-323.89574543333333,-182.70924891049998)"><path fill="black" stroke="none" paint-order="stroke fill markers" d=" M 310.28307601666666 175.90291420216664 L 323.89574543333333 182.70924891049998 L 310.28307601666666 189.51558361883332 Z"/></g></g><g><g><rect fill="white" stroke="none" x="58.66519387166666" y="207.2120538605" width="244.90056099" height="21.23576429"/></g><text fill="black" stroke="none" font-family="sans-serif" font-size="11pt" font-style="normal" font-weight="normal" text-decoration="normal" x="61.11547436666666" y="221.91373683049997" text-anchor="start" dominant-baseline="alphabetic">Prompts Consult analyzed data page</text></g><g><path fill="none" stroke="black" paint-order="fill stroke markers" d=" M 323.89574543333333 228.44781815049998 L 41.05773718333334 228.44781815049998" stroke-miterlimit="10" stroke-width="1.3612669416666667" stroke-dasharray="6.53408132"/><g transform="translate(38.3352033,228.44781815049998) translate(-38.3352033,-228.44781815049998)"><path fill="black" stroke="none" paint-order="stroke fill markers" d=" M 51.94787271666667 221.64148344216665 L 38.3352033 228.44781815049998 L 51.94787271666667 235.25415285883332 Z"/></g></g></g><g/><g/></g></svg>

<?xml version="1.0" encoding="utf-8"?>
<!-- Generator: Adobe Illustrator 16.0.0, SVG Export Plug-In . SVG Version: 6.00 Build 0)  -->
<!DOCTYPE svg PUBLIC "-//W3C//DTD SVG 1.1//EN" "http://www.w3.org/Graphics/SVG/1.1/DTD/svg11.dtd">
<svg version="1.1" id="Layer_1" xmlns="http://www.w3.org/2000/svg" xmlns:xlink="http://www.w3.org/1999/xlink" x="0px" y="0px"
	 width="396px" height="285px" viewBox="0 0 396 285" enable-background="new 0 0 396 285" xml:space="preserve">
<g>
	<rect fill="#FFFFFF" width="396" height="285"/>
</g>
<g>
	<path fill="none" stroke="#000000" stroke-width="1.3613" stroke-miterlimit="10" stroke-dasharray="12.5655,5.4451" d="
		M30.167,128.803v156.818"/>
	<path fill="none" stroke="#000000" stroke-width="1.3613" stroke-miterlimit="10" stroke-dasharray="12.5655,5.4451" d="
		M332.063,128.803v156.818"/>
</g>
<g>
	<g>
		<path fill="#FFFFFF" stroke="#000000" stroke-width="2.777" stroke-miterlimit="10" d="M39.479,59.705
			c0,5.143-4.169,9.311-9.312,9.311c-5.143,0-9.311-4.17-9.311-9.312c0-5.143,4.169-9.311,9.312-9.311
			c5.139,0,9.306,4.164,9.31,9.303 M30.167,69.016v19.929 M18.406,76.204h23.522 M30.167,88.945l-11.761,18.622 M30.167,88.945
			l11.761,18.622"/>
	</g>
	<g>
		<text transform="matrix(1 0 0 1 8.1675 123.9023)" font-family="'ArialMT'" font-size="11">Officer</text>
	</g>
	<path d="M0,0"/>
	<g>
		<path fill="#FFFFFF" stroke="#000000" stroke-width="2.6136" stroke-miterlimit="10" d="M275.84,84.698h112.447v44.105H275.84
			V84.698z"/>
	</g>
	<g>
		<text transform="matrix(1 0 0 1 293.5635 112.4678)" font-family="'ArialMT'" font-size="11">SafeStreets</text>
	</g>
</g>
<g>
	<path fill="#FFFFFF" stroke="#000000" stroke-width="1.3613" stroke-miterlimit="10" d="M22,136.971h16.335v132.314H22V136.971"/>
	<path fill="#FFFFFF" stroke="#000000" stroke-width="1.3613" stroke-miterlimit="10" d="M323.896,182.709h16.335v45.738h-16.335
		V182.709"/>
	<g>
		<g>
			<rect x="57.665" y="161.474" fill="#FFFFFF" width="246.9" height="21.235"/>
		</g>
		<text transform="matrix(1 0 0 1 60.1152 176.1748)" font-family="'ArialMT'" font-size="11">Clicks &quot;Consult analyzed data&quot; button</text>
	</g>
	<g>
		<path fill="none" stroke="#000000" stroke-width="1.3613" stroke-miterlimit="10" d="M38.335,182.709h282.838"/>
		<g transform="translate(323.89574543333333,182.70924891049998) translate(-323.89574543333333,-182.70924891049998)">
			<path d="M310.283,175.902l13.612,6.807l-13.612,6.807V175.902z"/>
		</g>
	</g>
	<g>
		<g>
			<rect x="58.665" y="207.212" fill="#FFFFFF" width="244.9" height="21.235"/>
		</g>
		<text transform="matrix(1 0 0 1 61.1152 221.9141)" font-family="'ArialMT'" font-size="11">Prompts Consult analyzed data page</text>
	</g>
	<g>
		<path fill="none" stroke="#000000" stroke-width="1.3613" stroke-miterlimit="10" stroke-dasharray="6.5341" d="M323.896,228.447
			H41.058"/>
		<g transform="translate(38.3352033,228.44781815049998) translate(-38.3352033,-228.44781815049998)">
			<path d="M51.948,221.642l-13.613,6.806l13.613,6.807V221.642z"/>
		</g>
	</g>
</g>
</svg>
